X: 1
T: No Doubt - Don't Speak
Z: Kilrathi
M: 4/4
L: 1/8
Q:1/4=78
K:Eb
z8|EG, EG, EG, EG,|EG, EG, EG, EG,|f/2g/2f4-f/2z2z/2|
ef fe/2g3/2c z3/2B/2|f/2g/2f2e/2g3/2c/2z3/2g-|gf4-f z3/2e/2|f/2g/2f2e d2 zB/2B/2|
f/2g/2f2e/2g3/2c z2|f/2g/2f2e/2g3/2c zg-|gf6f/2f/2-|f3e/2g3/2z2b|
z2 c'a/2f2-f/2 z3/2B/2|f/2gggfdBff/2-|f/2=e3-=e/2 z4|FA/2z2C/2 _DF/2G3/2F/2A/2-|
AG z3/2B,/2 C/2=EGG/2A/2G/2-|GA/2z3/2B,/2C3/2=E/2G3/2=E/2F/2-|F3/2z6z/2|FA/2z2C/2 _DF/2G2A/2-|
AG z3/2B,/2 C=E/2GG/2A/2G/2-|GA/2z3/2c/2c3/2B/2B3/2A/2A/2-|Az6z|f/2g/2f4-f z2|
_ef fe/2g3/2c z3/2B/2|e/2f/2f fe/2g3/2c zg-|gf4-f/2z2z/2|F2 z_E/2G/2 z3B-|
Bz cA/2F4-F/2|zB,/2B,/2 F/2G/2F/2F3/2=D/2B,FF/2-|F/2=E4z3z/2|FA z3/2C/2 _DF/2G3/2F/2A/2-|
AG z3/2B,/2 C/2=EGG/2A/2G/2-|GA2A/2A3/2G/2G3/2F/2F/2-|Fz2C/2_D_D/2_E/2FF/2G/2F/2|FA z3/2C/2 _DF/2GFA/2-|
AG3/2zB/2 c/2BBBA/2-|AG zc/2c3/2B/2B3/2A/2A/2-|A/2z6z3/2|A2 _d3/2B3/2A2_G/2F/2|
_G2 _G3/2A3/2_G z=E/2_E/2|=E4 z4|z3/2C/2 _E/2F/2=G/2F3/2=D/2B,3/2G,/2A,/2-|A,3/2EA,/2G/2F3/2G/2z2z/2|
z3/2C/2 E/2F/2G/2F3/2D/2B,3/2G,/2A,/2-|A,/2zzA/2G/2A/2 B/2zA/2 Fz|z3/2E/2 G=d/2e/2 d/2e/2c/2d/2 B/2c/2G/2B/2|F/2G/2E/2(3FGAB/2 A/2A/2G3/2z3/2|
z3/2C,/2 E,/2F,/2G,/2E,/2 F,/2G,/2A,/2(3B,CB,A,/2|G,/2G,4z3z/2|EG, EG, DG, B,G,|A,F, A,F, DF, B,F,|
f/2g/2f6z|ef fe/2g3/2c/2z3/2g-|gf3/2FA/2 z2 C/2_DF/2|G3/2F/2 A3/2Gz3/2 B,/2C/2=E|
GG/2A/2 G3/2Az3/2 c3/2B/2|A/2z3/2 c3/2B/2 A/2z3/2 c3/2B/2|AA/2B/2 A/2FAz2cB/2|B3/2A/2 c3/2B2-B/2 A/2B/2c|
ec BA/2F3AG/2|G3/2F/2 F3F/2B/2 B3/2A/2|G3/2zFA/2 z2 C/2_DF/2|G3/2F/2 A3/2G3/2z B,/2C/2=E|
GG/2A/2 G3/2A/2 z2 G3/2A/2|z2 G3/2A/2 G3/2A/2 G3/2A/2|G3/2A/2
